build/system/ExitOutline.svg

<svg xmlns="http://www.w3.org/2000/svg" fill="none" viewBox="0 0 24 24" focusable="false"><path d="M0 0H24V24H0z"/><path fill="#74767B" fill-rule="evenodd" d="M8 4.3L15 4.3C15.9389 4.3 16.7 5.06112 16.7 6L16.7 6.35C16.7 6.70899 16.991 7 17.35 7C17.709 7 18 6.70899 18 6.35L18 6C18 4.34315 16.6569 3 15 3L8 3C6.34315 3 5 4.34315 5 6L5 18C5 19.6569 6.34315 21 8 21L15 21C16.6569 21 18 19.6569 18 18L18 17.65C18 17.291 17.709 17 17.35 17C16.991 17 16.7 17.291 16.7 17.65L16.7 18C16.7 18.9389 15.9389 19.7 15 19.7L8 19.7C7.80233 19.7 7.61255 19.6663 7.43608 19.6042L9.66747 18.3292C10.275 17.982 10.65 17.3359 10.65 16.6361L10.65 7.25442C10.65 6.55465 10.275 5.90853 9.66747 5.56135L7.5605 4.35736C7.70069 4.31994 7.84802 4.3 8 4.3ZM9.02249 17.2004L6.43982 18.6763C6.34987 18.469 6.3 18.2403 6.3 18L6.3 6C6.3 5.72577 6.36493 5.46671 6.48025 5.23735C7.13425 5.61107 9.35 6.32801 9.35 7.25442L9.35 16.6361C9.35 16.8693 9.22501 17.0847 9.02249 17.2004ZM17.48 15.21C17.3 15.21 17.13 15.14 17 15C16.76 14.73 16.78 14.32 17.04 14.08L18.5976 12.5945L13.65 12.5945C13.291 12.5945 13 12.3035 13 11.9445C13 11.5855 13.291 11.2945 13.65 11.2945L18.5906 11.2945L17.04 9.92C16.77 9.68 16.76 9.27 17 9C17.24 8.74 17.65 8.72 17.92 8.96L20.63 11.4245C20.94 11.7045 20.94 12.1845 20.63 12.4645L17.92 15.04C17.79 15.16 17.64 15.21 17.48 15.21Z"/></svg>

<svg xmlns="http://www.w3.org/2000/svg" fill="none" viewBox="0 0 24 24" focusable="false"><path fill="#74767B" fill-rule="evenodd" d="M8 4.3h7c.93 0 1.7.76 1.7 1.7v.35c0 .35.29.65.65.65.35 0 .65-.3.65-.65V6c0-1.66-1.35-3-3-3H8C6.34 3 5 4.34 5 6v12c0 1.65 1.34 3 3 3h7c1.65 0 3-1.35 3-3v-.35c0-.36-.3-.65-.65-.65-.36 0-.65.29-.65.65V18c0 .93-.77 1.7-1.7 1.7H8c-.2 0-.39-.04-.57-.1l2.23-1.28c.61-.34.98-.99.98-1.69V7.25c0-.7-.37-1.35-.98-1.69l-2.1-1.21c.14-.04.28-.05.44-.05m1.02 12.9-2.59 1.47c-.08-.21-.14-.43-.14-.67V6c0-.28.07-.54.19-.77.65.38 2.87 1.09 2.87 2.02v9.38c0 .23-.13.45-.33.57M17 15c.12.14.29.21.48.21.16 0 .31-.05.43-.17l2.71-2.58c.31-.28.31-.76 0-1.04l-2.71-2.46A.646.646 0 0 0 17 9a.64.64 0 0 0 .04.92l1.55 1.37h-4.95c-.35 0-.64.29-.64.65s.29.65.64.65h4.95l-1.55 1.49A.64.64 0 0 0 17 15"/></svg>
